X:2557
L:1/4
Q:1/4=150
M:3/4
K:D
 z2 F | B3/2 d/ c | B2 f | e3 | c3 | B3/2 d/ c | ^A2 =c | F3 | z2 F | B3/2 d/ c | B2 f | a2 _a | 
 g2 e | g3/2 f/ ^e | A2 d | B3 |]

